X: 577
T: Sheridan of Coolcanig.   #2
T: ua siridein ua cuil-carraig.
R: jig, air
%S: s:2 b:16(8+8)
B: O'Neill's 1850 #577
O: O'Brien
Z: J.B. Walsh walsh@math.ubc.ca
Q: "Distinctly."
M: 6/8
L: 1/8
K: D
d/c/\
"^A"[| A2F G2A | Bcd A2F | G2{AG}F D2D | D3- "^fine"D2 |]
"^B"|:   A  | ABc d2e | f2d efg | fdA ABc |1 d3- d2 :|2 d3 "^->A"dcB |]


%   A  | ABc d2e | f2d efg |  fdA   ABc  | d3 |\
% dcB  | A2F G2A | Bcd A2F | G2{AG}F D2D | D3- D2 |]
